icons/op-console-24.svg

<svg width="24" height="24" viewBox="0 0 24 24" fill="none" xmlns="http://www.w3.org/2000/svg">
<path d="M4 5V19H20V5H4ZM19 18H5V6H19V18ZM6 7V17H18V7H6ZM10.4688 10.4062L8.15625 12C8.0625 12.0625 7.96875 12.0625 7.875 12.0625C7.71875 12.0625 7.5625 12 7.46875 11.8438C7.3125 11.625 7.375 11.3125 7.59375 11.1562L9.25 10.0312L7.625 9C7.375 8.84375 7.3125 8.5625 7.4375 8.3125C7.59375 8.0625 7.90625 8 8.125 8.15625L10.4375 9.5625C10.5938 9.65625 10.6562 9.8125 10.6875 9.96875C10.6875 10.1562 10.5938 10.3125 10.4688 10.4062ZM15 11H12V10H15V11Z" fill="black"/>
</svg>

<svg xmlns="http://www.w3.org/2000/svg" width="24" height="24" viewBox="0 0 24 24"><path d="M4 5v14h16V5H4Zm15 13H5V6h14v12ZM6 7v10h12V7H6Zm4.469 3.406L8.156 12c-.094.062-.187.062-.281.062a.454.454 0 0 1-.406-.218.499.499 0 0 1 .125-.688l1.656-1.125L7.625 9a.51.51 0 0 1-.187-.688.48.48 0 0 1 .687-.156l2.313 1.406c.156.094.218.25.25.407a.547.547 0 0 1-.219.437ZM15 11h-3v-1h3v1Z"/></svg>
